packages/calcite-ui-icons/icons/location-label-16.svg

<?xml version="1.0" encoding="UTF-8"?><svg id="icons" xmlns="http://www.w3.org/2000/svg" viewBox="0 0 16 16"><defs><style>.cls-1{fill:none;}</style></defs><path d="M14,10h-6v-1h6v1ZM8,5v1h7v7H1V5H0v9h16V5h-8ZM7,8.70703v-4.69629c0-1.1084-.90234-2.01074-2.01074-2.01074h-.97852c-1.1084,0-2.00174.8916-2.00174,2l-.009,4.70703,2.5,2.5,2.5-2.5ZM3,4.01074c0-.55762.45312-1.01074,1.01074-1.01074h.97852c.55762,0,1.01074.45312,1.01074,1.01074v4.28223l-1.5,1.5-1.5-1.5v-4.28223ZM4,5v1h1v-1h-1Z"/><rect class="cls-1" width="16" height="16"/></svg>

<svg xmlns="http://www.w3.org/2000/svg" viewBox="0 0 16 16"><path d="M14 10H8V9h6v1zM8 5v1h7v7H1V5H0v9h16V5H8zM7 8.707V4.011A2.013 2.013 0 0 0 4.99 2h-.98a1.997 1.997 0 0 0-2 2L2 8.707l2.5 2.5 2.5-2.5zM3 4.011C3 3.453 3.453 3 4.01 3h.98C5.546 3 6 3.453 6 4.01v4.283l-1.5 1.5-1.5-1.5V4.011zM4 5v1h1V5H4z"/><path fill="none" d="M0 0h16v16H0z"/></svg>
